X:8
T:Schottisch CF oct (stacc.)
M:2/4
L:1/4
K:Cmaj
"C"E>C | .E/2(c/2 B/2A/2) | "G7".G/2(B,/2 D/2G/2) | B,2 | .G/2(B,/2 D/2G/2) | B,2 | "C".G/2(C/2 E/2G/2) | C2 | E>C | .E/2(c/2 B/2A/2) | 
"G7".G/2(B,/2 D/2G/2) | B,2 | .G/2(B,/2 D/2G/2) | .B, .D | "C".C "G7"B, | "C"C/2C/2 C/2 z/2 :: "C"A>G | [L:1/8] (EG) (CG) | "G7"(B,G) F2 | 
z .c .B.A | A3 G | (FG) (DG) | "C"(CG) E2 | z .c .B.A | A3 G | (EG) (CG) | "G7"(B,G) F z | z .c .B.A | 
A3 G | (FG) (B,G) | "C".C2 c2 | cc cz :: [K:Fmaj] [L:1/4] "F"A>B/2A/4 | (GF) | "C7"B>E | .E .E | B2 | (AG) | 
"F"c>F | .F.F | A2 | (GF) | "C7"B>G | .G.G | B>E | (B/2E/2 B/2E/2) | "F".F "C7"E | "F"F/2F/2 F/2 z/2 :| 

